assets/icon-washing.svg

<svg
  class="icon icon-accordion icon-washing"

  focusable="false"
  xmlns="http://www.w3.org/2000/svg"


  viewBox="0 0 20 20"
>
  <path d="M0.38191 4.26524C0.652327 4.19778 0.926646 4.36065 0.994619 4.62903L3.53292 14.6511C3.54914 14.7106 3.60034 14.7479 3.65788 14.7479H16.3422C16.3998 14.7479 16.451 14.7106 16.4672 14.651C16.4673 14.6506 16.4675 14.6502 16.4676 14.6498L19.0054 4.62904C19.0734 4.36066 19.3477 4.19778 19.6181 4.26523C19.8885 4.33269 20.0526 4.60494 19.9847 4.87332L17.4458 14.8982L17.4447 14.9023C17.3149 15.3972 16.867 15.75 16.3422 15.75H3.65788C3.13313 15.75 2.68527 15.3972 2.55542 14.9023L2.55434 14.8982L0.0153513 4.87333C-0.0526214 4.60495 0.111492 4.3327 0.38191 4.26524Z"/>
  <path d="M6.76169 7.36178C6.11228 7.20142 5.40174 7.36303 4.75389 7.71568L4.74572 7.72013L4.73738 7.72427C4.55194 7.81655 4.38964 7.91308 4.21117 8.01923C4.0989 8.08601 3.98022 8.1566 3.84536 8.23232C3.52401 8.41277 3.15453 8.59357 2.72811 8.67939L2.71955 8.68111C2.08915 8.79675 1.53984 8.55856 1.12774 8.33954L1.6044 7.45611C1.97602 7.65361 2.26006 7.74481 2.53197 7.69634C2.80109 7.64144 3.05982 7.52202 3.34815 7.36012C3.43695 7.31026 3.53611 7.25156 3.64095 7.1895C3.84288 7.06996 4.06587 6.93795 4.27647 6.83261C5.06232 6.40671 6.03295 6.1502 7.00242 6.38856C7.69625 6.55146 8.31122 6.91064 8.84283 7.22112C8.93772 7.27654 9.02996 7.33041 9.11951 7.38134C9.54269 7.61551 9.86129 7.74878 10.1516 7.70566C10.5743 7.61348 10.9584 7.3965 11.4176 7.12784C11.4329 7.11892 11.4482 7.10994 11.4636 7.1009C11.8908 6.85074 12.3909 6.55782 12.968 6.42066C13.9716 6.13864 15.01 6.39498 15.8247 6.85665C16.0106 6.953 16.2099 7.06983 16.3941 7.17778C16.5001 7.2399 16.6011 7.29909 16.6916 7.34975C16.9673 7.50401 17.2202 7.62511 17.4814 7.69408C17.6558 7.74014 17.8437 7.72276 18.0658 7.64569C18.2042 7.59767 18.3474 7.52933 18.4995 7.44684L18.9839 8.32612C18.8074 8.42189 18.6102 8.51838 18.399 8.59167C18.0548 8.71111 17.6518 8.77606 17.2218 8.6625C16.8378 8.56111 16.4976 8.39159 16.1957 8.22267C16.064 8.14895 15.9478 8.08055 15.8372 8.01544C15.6731 7.91888 15.5214 7.82959 15.3497 7.741L15.3404 7.73618L15.3312 7.73097C14.673 7.35597 13.9098 7.1946 13.2351 7.38713L13.2233 7.39052L13.2113 7.39332C12.7842 7.49304 12.3982 7.71742 11.9304 7.99113L11.9227 7.99562C11.4802 8.25451 10.9593 8.55926 10.35 8.68837L10.3384 8.69081L10.3268 8.69271C9.64242 8.8049 9.02791 8.47817 8.62508 8.2551L8.62016 8.25237C8.51051 8.19005 8.40451 8.12848 8.30111 8.06845C7.7661 7.75786 7.30134 7.48804 6.76778 7.36325L6.76169 7.36178Z"/>
</svg>

<svg xmlns="http://www.w3.org/2000/svg" class="icon icon-accordion icon-washing" viewBox="0 0 20 20"><path d="M.382 4.265a.505.505 0 0 1 .613.364l2.538 10.022c.016.06.067.097.125.097h12.684a.13.13 0 0 0 .125-.097v-.001l2.538-10.021a.505.505 0 0 1 .98.244l-2.54 10.025v.004c-.13.495-.578.848-1.103.848H3.658c-.525 0-.973-.353-1.103-.848v-.004L.014 4.873a.5.5 0 0 1 .367-.608"/><path d="M6.762 7.362c-.65-.16-1.36.001-2.008.354l-.008.004-.009.004a8 8 0 0 0-.526.295c-.112.067-.23.138-.366.213-.321.18-.69.362-1.117.447l-.008.002c-.63.116-1.18-.122-1.592-.341l.476-.884c.372.198.656.289.928.24.27-.055.528-.174.816-.336q.135-.076.293-.17c.202-.12.425-.252.635-.357.786-.426 1.757-.683 2.726-.444.694.162 1.31.522 1.84.832q.143.085.278.16c.423.235.741.368 1.032.325.422-.093.806-.31 1.266-.578q.022-.014.046-.027c.427-.25.927-.543 1.504-.68 1.004-.282 2.042-.026 2.857.436.186.096.385.213.57.32q.159.095.297.173c.275.154.528.275.79.344.174.046.362.029.584-.048a3 3 0 0 0 .434-.2l.484.88a4 4 0 0 1-.585.266c-.344.12-.747.184-1.177.07a4.4 4.4 0 0 1-1.026-.44 18 18 0 0 1-.359-.207c-.164-.096-.316-.185-.487-.274l-.01-.005-.009-.005c-.658-.375-1.421-.536-2.096-.344l-.012.004-.012.002c-.427.1-.813.324-1.28.598l-.008.005c-.443.259-.964.563-1.573.692l-.012.003-.011.002c-.685.112-1.3-.215-1.702-.438l-.005-.003q-.164-.094-.319-.184c-.535-.31-1-.58-1.533-.705z"/></svg>
